icons/svg/border-left.svg

﻿<?xml version="1.0" encoding="utf-8"?>
<!DOCTYPE svg PUBLIC "-//W3C//DTD SVG 1.1//EN" "http://www.w3.org/Graphics/SVG/1.1/DTD/svg11.dtd">
<svg xmlns="http://www.w3.org/2000/svg" xmlns:xlink="http://www.w3.org/1999/xlink" version="1.1" baseProfile="full" width="24" height="24" viewBox="0 0 24.00 24.00" enable-background="new 0 0 24.00 24.00" xml:space="preserve">
	<path fill="#000000" fill-opacity="1" stroke-width="0.2" stroke-linejoin="round" d="M 14.9994,4.99805L 16.9994,4.99805L 16.9994,2.99805L 14.9994,2.99805M 14.9994,12.998L 16.9994,12.998L 16.9994,10.998L 14.9994,10.998M 18.9994,20.998L 20.9994,20.998L 20.9994,18.998L 18.9994,18.998M 18.9994,12.998L 20.9994,12.998L 20.9994,10.998L 18.9994,10.998M 18.9994,4.99805L 20.9994,4.99805L 20.9994,2.99805L 18.9994,2.99805M 18.9994,16.998L 20.9994,16.998L 20.9994,14.998L 18.9994,14.998M 14.9994,20.998L 16.9994,20.998L 16.9994,18.998L 14.9994,18.998M 18.9994,8.99805L 20.9994,8.99805L 20.9994,6.99805L 18.9994,6.99805M 2.9994,20.998L 4.9994,20.998L 4.9994,2.99805L 2.9994,2.99805M 6.9994,12.998L 8.9994,12.998L 8.9994,10.998L 6.9994,10.998M 6.9994,4.99805L 8.9994,4.99805L 8.9994,2.99805L 6.9994,2.99805M 6.9994,20.998L 8.9994,20.998L 8.9994,18.998L 6.9994,18.998M 10.9994,12.998L 12.9994,12.998L 12.9994,10.998L 10.9994,10.998M 10.9994,8.99805L 12.9994,8.99805L 12.9994,6.99805L 10.9994,6.99805M 10.9994,4.99805L 12.9994,4.99805L 12.9994,2.99805L 10.9994,2.99805M 10.9994,16.998L 12.9994,16.998L 12.9994,14.998L 10.9994,14.998M 10.9994,20.998L 12.9994,20.998L 12.9994,18.998L 10.9994,18.998L 10.9994,20.998 Z "/>
</svg>

<svg xmlns="http://www.w3.org/2000/svg" version="1.1" baseProfile="full" width="24" height="24" viewBox="0 0 24.00 24.00" xml:space="preserve"><path fill="#000" fill-opacity="1" stroke-width=".2" stroke-linejoin="round" d="M15 4.998h2v-2h-2m0 10h2v-2h-2m4 10h2v-2h-2m0-6h2v-2h-2m0-6h2v-2h-2m0 14h2v-2h-2m-4 6h2v-2h-2m4-10h2v-2h-2m-16 14h2v-18H3m4 10h2v-2H7m0-6h2v-2H7m0 18h2v-2H7m4-6h2v-2h-2m0-2h2v-2h-2m0-2h2v-2h-2m0 14h2v-2h-2m0 6h2v-2h-2v2z"/></svg>
